X:1
T: Newcastle Bridge
C:Abraham Mackintosh
R:Jig
Q:180
K:A
M:6/8
L:1/16
ed|:c4A2 A2B2c2|B2G2E2 E4d2|c2A2c2 e2d2c2|B2c2B2 B2e2d2|
c4A2 A2B2c2|B2G2E2 E2B2d2|cde2c2 d2B2G2|A2A2A2 A2e2d2:|
|:c2d2e2 e2d2c2|d2e2f2 f2e2d2|c2A2c2 e2d2c2|B2G2E2 E2e2d2|
c2d2e2 e2d2c2|d2e2f2 f2g2a2|e2c2A2 d2B2G2|1A2c2e2 a2e2d2:|2A2c2e2 a4||
